X:1
T:Salve Regina - Anerio
T:#
%%score [ 1 2 3 4 ]
L:1/8
Q:1/4=100
M:none
K:C
V:1 treble nm="Soprano" snm="S"
V:2 treble nm="Alto" snm="A"
V:3 treble-8 nm="Tenor" snm="T"
V:4 bass nm="Bass" snm="B"
V:1
"^Salve Regina""^Felice Anerio\n(c. 1560-1614)" z8[Q:1/4=200] ^F16 || G8 B4 d4 | (c8 B6) B2 | %3
w: Regina~mater|mi- se- ri-|cor\- * di-|
 A16 || A16 || G4 G4 c4 B4 |[M:4/2][Q:1/4=200][Q:1/4=200][Q:1/4=200][Q:1/4=200] (A8 G8) | G16 || %8
w: ae,|vita,~dulcedo,|et spes no- stra|sal\- *|ve.|
 G16 | A16 || A6 A2 G8 | G8 ^F8 || G16 || G8 _B8 | _B4 A4 A8 | A8 || A16 | A4 (_B4 A2 G2) (G4- | %18
w: Ad~te~clamamus|exules|fi- li- i|E- vae.|Ad~te~suspiramus|ge- men-|tes et flen-|tes|in~hac~lacry-|ma- rum * * val\-|
 G4 ^F4) G8 || E16 | G16 || A16 | G16 | A8 A8 | ^G8 G4 B4 | c4 B4 A4 d4 | G6 G2 G4 G4 | %27
w: * * le.|Eia~ergo|advocata|no-|stra,|il- los|tu- os mi-|se- ri- cor- des|o- cu- los ad|
 A4 F4 (E2 F2 G2 E2 | F6 G2 A8) | A8 z8 | A8 A8 | ^F8 || G16 | G16 || (A6 B2 c4) A4 | G8 A8 | %36
w: nos con- ver\- * * *||te.|Et Je-|sum|benedictum|fructum|ven\- * * tris|tu- i,|
 z4 c4 B4 A2 G2- | G2 F2 E3 E E4 ^F4 | G8 ^F8 | A8 _B8 |[Q:1/4=200] A8 ^F8 | G8 ^F8 || %42
w: no- bis post hoc|* ex- i- li- um o-|sten- de.|O cle-|mens, O|pi- a,|
[M:3/1][Q:1/4=400] A8 B8 ^c8 | d8 d8 A8 | (A16 ^G8) | A16 z8 | %46
w: O dul- cis|Vir- go Ma-|ri\- *|a,|
[Q:1/4=396] A8[Q:1/4=389] A8[Q:1/4=382] A8 |[Q:1/4=372] _B16[Q:1/4=362] B8 | %48
w: O dul- cis|Vir- go|
[Q:1/4=355] A8[Q:1/4=346] A16 |[Q:1/4=340] A24 |] %50
w: Ma- ri-|a.|
V:2
 z8 D16 || D8 G4 G4 | E12 E4 | ^C16 || E16 || E12 G4 |[M:4/2] F4 E4 D8 | E16 || E16 | F16 || %10
w: Regina~mater|mi- se- ri-|cor- di-|ae,|vita,~dulcedo,|et spes|no- stra sal-|ve.|Ad~te~clamamus|exules|
 F6 F2 E4 (D4- | D4 ^C4) D8 || D16 || E8 F8 | F4 F4 E8 | E8 || F16 | F8 D8 | D8 B,8 || C16 | E16 || %21
w: fi- li- i E\-|* * vae.|Ad~te~suspiramus|ge- men-|tes et flen-|tes|in~hac~lacry-|ma- rum|val- le.|Eia~ergo|advocata|
 F16 | E16 | F8 F8 | E8 E4 E4 | E4 E4 C4 F4 | E6 D2 D4 E4 | F4 D4 (C6 B,2 | A,2 D,2 D8 ^C4) | %29
w: no-|stra,|il- los|tu- os mi-|se- ri- cor- des|o- cu- los ad|nos con- ver\- *||
 D8 z8 | F8 E8 | A,8 || C16 | E16 || F8 F4 (F4- | F4 E4) F8 | z4 C4 D4 F2 E2- | %37
w: te.|Et Je-|sum|benedictum|fructum|ven- tris tu\-|* * i,|no- bis post hoc|
 E2 D2 ^C3 C C4 D4- | D4 (^CB, C2) D8 | F8 F8 | (F6 G2 A4) D4 | D8 D8 ||[M:3/1] E8 E8 E8 | F16 F8 | %44
w: * ex- i- li- um o\-|* sten\- * * de.|O cle-|mens, * * O|pi- a,|O dul- cis|Vir- go|
 E8 E16 | ^C16 z8 | D8 E8 ^F8 | G8 D16 | D16 ^C8 | D24 |] %50
w: Ma- ri-|a,|O dul- cis|Vir- go|Ma- ri-|a.|
V:3
 z8 A16 || B8 B4 B4- | B4 A8 ^G4 | A16 || c16 || B8 G8 |[M:4/2][K:treble-8] c4 c8 B4 | c16 || c16 | %9
w: Regina~mater|mi- se- ri\-|* cor- di-|ae,|vita,~dulcedo,|et spes|no- stra sal-|ve.|Ad~te~clamamus|
 c16 || z4 c6 B2 B4 | G8 A8 || B16 || c8 d8 | d4 d4 ^c8 | ^c8 || d16 | d12 _B4 | A8 G8 || G16 | %20
w: exules|fi- li- i|E- vae.|Ad~te~suspiramus|ge- men-|tes et flen-|tes|in~hac~lacry-|ma- rum|val- le.|Eia~ergo|
 c16 || c16 | c16 | c12 d4 | B8 B4 ^G4 | A4 ^G4 A4 B4 | c6 B2 B8 | z8 G8 | F4 D4 E8 | ^F8 z8 | %30
w: advocata|no-|stra,|il- los|tu- os mi-|se- ri- cor- des|o- cu- los|ad|nos con- ver-|te.|
 d4 (d8 ^c4) | d8 || e16 | c16 || (c2 B2 A2 G2 F4) c4 | c8 c8 | A8 G4 F2 c2- | c2 d2 A3 A A4 D4 | %38
w: Et Je\- *|sum|benedictum|fructum|ven\- * * * * tris|tu- i,|no- bis post hoc|* ex- i- li- um o-|
 E8 D8 | d8 d8 | c8 z4 A4 | _B8 A8 ||[M:3/1] c8 B8 A8 | A16 d8 | c8 B16 | A16 z8 | F8 E8 D8 | %47
w: sten- de.|O cle-|mens, O|pi- a,|O dul- cis|Vir- go|Ma- ri-|a,|O dul- cis|
 d16 G8 | F8 E16 | D24 |] %50
w: Vir- go|Ma- ri-|a.|
V:4
 A,2 G,2 A,2 D,2 D,16 || G,8 E,4 B,,4 | (C,6 D,2 E,4) E,4 | A,,16 || A,16 || E,4 E,4 E,8 | %6
w: Sal\- * * ve Regina~mater|mi- se- ri-|cor\- * * di-|ae,|vita,~dulcedo,|et spes no-|
[M:4/2] F,8 G,8 | C,16 || C,16 | F,16 || F,6 F,2 G,8 | E,8 D,8 || G,16 || C,8 _B,,8 | %14
w: stra sal-|ve.|Ad~te~clamamus|exules|fi- li- i|E- vae.|Ad~te~suspiramus|ge- men-|
 _B,,4 D,4 A,,8 | A,,8 || D,16 | (D,6 E,2 ^F,4) G,4 | D,8 G,,8 || C,16 | C,16 || F,16 | C,16 | %23
w: tes et flen-|tes|in~hac~lacry-|ma\- * * rum|val- le.|Eia~ergo|advocata|no-|stra,|
 F,12 D,4 | E,8 E,4 E,4 | A,4 E,4 F,4 D,4 | C,6 G,2 G,8 | z8 C,8 | D,4 _B,,4 A,,8 | D,8 z8 | %30
w: il- los|tu- os mi-|se- ri- cor- des|o- cu- los|ad|nos con- ver-|te.|
 D,8 A,,8 | D,8 || C,16 | C,16 || (F,6 G,2 A,4) F,4 | C,8 F,8- | F,8 z8 | z16 | z16 | D,8 _B,,8 | %40
w: Et Je-|sum|benedictum|fructum|ven\- * * tris|tu- i,||||O cle-|
 F,8 D,8 | G,,8 D,8 ||[M:3/1] A,8 ^G,8 A,8 | D,16 D,8 | A,,8 E,16 | A,,16 z8 | D,8 ^C,8 D,8 | %47
w: mens, O|pi- a,|O dul- cis|Vir- go|Ma- ri-|a,|O dul- cis|
 G,,16 G,,8 | D,8 A,,16 | D,24 |] %50
w: Vir- go|Ma- ri-|a.|

